src/assets/images/hats/detective.svg

<svg width="72" height="43" xmlns="http://www.w3.org/2000/svg" fill-rule="evenodd" clip-rule="evenodd" stroke-linejoin="round" stroke-miterlimit="2"><path d="M11.915 20.584S15.247-1.242 26.46.056c8.612.995 11.99 2.023 19.207.237 4.774-1.181 9.968 2.786 13.099 10.738 2 5.07 3.001 9.909 3.001 9.909s9.656-.944 10.213 4.247c.56 5.19-10.676 11.564-38.96 11.564C17.166 36.748.811 30.969.033 26.13c-.777-4.838 11.88-5.547 11.88-5.547z" fill="#66757f" fill-rule="nonzero"/><g transform="matrix(2.45205 0 0 2.45205 -7.354 0)"><clipPath id="a"><path d="M7.694 6.671h20.55v7.009H7.694z"/></clipPath><g clip-path="url(#a)"><path d="M8.125 7.15s-.27 1.104-.406 1.871c-.136.768.226 1.296 2.705 1.824 3.287.7 10.679.692 15.058-.383 1.759-.432 2.886-.72 2.751-1.583-.167-1.068-.196-1.066-.541-2.208 0 0-1.477.502-3.427.96-2.66.624-9.964.911-13.481.144-1.874-.41-2.659-.625-2.659-.625zm-.136 13.953c-.354.145 2.921 1.378 7.48 1.458 4.771.084 6.234.39 5.146 1.459-1.146 1.125-.852 2.894-.771 3.418.081.524 2.047 1.916 2.208 2.56.161.645-1.229 5.961-1.229 5.961l-8.729-.252c-2.565-8.844-2.883-8.501-4.105-13.604-.241-1.008 0-1 0-1z" fill="#292f33" fill-rule="nonzero"/></g></g></svg>

<?xml version="1.0" encoding="UTF-8" standalone="no"?>
<!DOCTYPE svg PUBLIC "-//W3C//DTD SVG 1.1//EN" "http://www.w3.org/Graphics/SVG/1.1/DTD/svg11.dtd">
<svg width="72" height="43" viewBox="0 0 72 43" version="1.1" xmlns="http://www.w3.org/2000/svg"
    xmlns:xlink="http://www.w3.org/1999/xlink" xml:space="preserve" xmlns:serif="http://www.serif.com/"
    style="fill-rule:evenodd;clip-rule:evenodd;stroke-linejoin:round;stroke-miterlimit:2;">
    <g transform="matrix(0.353096,0,0,0.353096,-7.35366,-0.000787793)">
        <g transform="matrix(6.94444,0,0,6.94444,0,0)">
            <path
                d="M7.858,8.395C7.858,8.395 9.217,-0.506 13.79,0.023C17.302,0.429 18.68,0.848 21.623,0.12C23.57,-0.362 25.688,1.256 26.965,4.499C27.781,6.567 28.189,8.54 28.189,8.54C28.189,8.54 32.127,8.155 32.354,10.272C32.582,12.389 28,14.988 16.465,14.988C10,14.987 3.33,12.63 3.013,10.657C2.696,8.684 7.858,8.395 7.858,8.395Z"
                style="fill:rgb(102,117,127);fill-rule:nonzero;" />
        </g>
        <g transform="matrix(6.94444,0,0,6.94444,0,0)">
            <clipPath id="_clip1">
                <rect x="7.694" y="6.671" width="20.55" height="7.009" />
            </clipPath>
            <g clip-path="url(#_clip1)">
                <path
                    d="M8.125,7.15C8.125,7.15 7.855,8.254 7.719,9.021C7.583,9.789 7.945,10.317 10.424,10.845C13.711,11.545 21.103,11.537 25.482,10.462C27.241,10.03 28.368,9.742 28.233,8.879C28.066,7.811 28.037,7.813 27.692,6.671C27.692,6.671 26.215,7.173 24.265,7.631C21.605,8.255 14.301,8.542 10.784,7.775C8.91,7.365 8.125,7.15 8.125,7.15ZM7.989,21.103C7.635,21.248 10.91,22.481 15.469,22.561C20.24,22.645 21.703,22.951 20.615,24.02C19.469,25.145 19.763,26.914 19.844,27.438C19.925,27.962 21.891,29.354 22.052,29.998C22.213,30.643 20.823,35.959 20.823,35.959L12.094,35.707C9.529,26.863 9.211,27.206 7.989,22.103C7.748,21.095 7.989,21.103 7.989,21.103Z"
                    style="fill:rgb(41,47,51);fill-rule:nonzero;" />
            </g>
        </g>
    </g>
</svg>
